X:1274
T:The Dogs Among the Bushes
M:C|
L:1/8
R:Reel
B:O'Neill's 1274
N:Collected by Ennis
Z:Transcribed by Trish O'Neil
K:G
BG A3GFG DG A3GFG|BGGB cedc|BG A3GFG DG A3GFG|A
FFA fdcA|
BG A3GFG DG A3GFG|BGGB cedc|BABc defd|cAFA fdcA||
dggf gagf|dgga bgaf|defe fgfe|dfeg fdcA|
Bggf gagf|dggf bgag|bgag bgag|dfeg fdcA||
